X: 14778
T: Gan Ainm
R: polka
M: 2/4
K: Gmajor
dd/d/ dd/d/|dD GB|dd/d/ dd/d/|db ag|gf fc'|c'e ef|fe ef|ed B2|
dd/d/ dd/d/|dD GB|dd/d/ dd/d/|db ag|gf fc'|c'e ef|ed cA|G2 fe||
d z b z|e3 f|ed g2|g2 e>d|cd ef|ga bc'|d'd'/d'/ d'd'|d'd' d'd'||[K: Cmaj]
g^f/g/ ag|fe dc|cB/c/ cA|G4|GB/d/ g2|GB/d/ g2|gf/g/ ab|b z g z||

